X: 31928
T: Peadar Charlie's Fix
R: reel
M: 4/4
K: Dmajor
ABce dBAF|DFED ADFD|EDEF GEEd|cAce gfec|
dcdA BdAF|DFED ABdf|gbge cAGA|FAEG FDDB|
AFFE DFAd|BdAF GEEF|GABd cABc|dfBd cAAc|
BABc dfaf|gbaf gece|dfed cA (3Bcd|ABEA FDDB|

